icons/fill-ele-symbol-error-close-circle.svg

<svg xmlns="http://www.w3.org/2000/svg" width="32px" height="32px" viewBox="0 0 32 32" version="1.1">
    <title>fill-ele-symbol-error-close-circle</title>
    <g id="fill-ele-symbol-error-close-circle" stroke-width="1" fill-rule="evenodd">
        <path d="M16,2 C23.7319865,2 30,8.2680135 30,16 C30,23.7319865 23.7319865,30 16,30 C8.2680135,30 2,23.7319865 2,16 C2,8.2680135 8.2680135,2 16,2 Z M12.7071068,11.2928932 C12.3165825,10.9023689 11.6834175,10.9023689 11.2928932,11.2928932 C10.9023689,11.6834175 10.9023689,12.3165825 11.2928932,12.7071068 L14.585,16 L11.2928932,19.2928932 C10.9324093,19.6533772 10.9046797,20.2206082 11.2097046,20.6128994 L11.2928932,20.7071068 C11.6834175,21.0976311 12.3165825,21.0976311 12.7071068,20.7071068 L16,17.415 L19.2928932,20.7071068 C19.6533772,21.0675907 20.2206082,21.0953203 20.6128994,20.7902954 L20.7071068,20.7071068 C21.0976311,20.3165825 21.0976311,19.6834175 20.7071068,19.2928932 L17.415,16 L20.7071068,12.7071068 C21.0675907,12.3466228 21.0953203,11.7793918 20.7902954,11.3871006 L20.7071068,11.2928932 C20.3165825,10.9023689 19.6834175,10.9023689 19.2928932,11.2928932 L16,14.585 L12.7071068,11.2928932 Z" id="&#24418;&#29366;" />
    </g>
</svg>

<svg xmlns="http://www.w3.org/2000/svg" viewBox="0 0 32 32"><path fill="currentColor" d="M16 2c7.732 0 14 6.268 14 14s-6.268 14-14 14S2 23.732 2 16 8.268 2 16 2m-3.293 9.293a1 1 0 0 0-1.414 1.414L14.585 16l-3.292 3.293a1 1 0 0 0-.083 1.32l.083.094a1 1 0 0 0 1.414 0L16 17.415l3.293 3.292a1 1 0 0 0 1.32.083l.094-.083a1 1 0 0 0 0-1.414L17.415 16l3.292-3.293a1 1 0 0 0 .083-1.32l-.083-.094a1 1 0 0 0-1.414 0L16 14.585z"/></svg>
